X:1
T:Title
%%score { 1 | 2 }
L:1/8
M:4/4
K:Bb
V:1 treble nm="Grand Piano"
V:2 bass 
V:1
 B4 | B2 c2 d4 | c4 B4 | c4 c4 | d4 B2 c2 | d4 d4 | f2 e2 d2 c2 | d4 c3 B | B4 B4 | B2 c2 d4 | %10
 c4 B4 | c4 c4 | d4 B2 c2 | d4 d4 | f2 e2 d2 c2 | d4 c3 B | B4 d4 | e4 d4 | c4 B4 | A4 B4 | c4 c4 | %21
 B4 A4 | B4 F4 | B4 c4 | d4 B2 c2 | d4 e4 | f4 d4 | c8 | B4 z4 |] %29
V:2
 B,4 | G,4 D,2 E,2 | F,4 G,4 | E,4 F,4 | B,,4 B,,4 | B,,2 A,,2 G,,2 C,2 | A,,4 B,,2 E,2 | %7
 F,2 E,2 F,2 F,,2 | B,,4 B,4 | G,4 D,2 E,2 | F,4 G,4 | E,4 F,4 | B,,4 B,,4 | B,,2 A,,2 G,,2 C,2 | %14
 A,,4 B,,2 E,2 | F,2 E,2 F,2 F,,2 | B,,4 B,,4 | A,,4 B,,4 | F,4 G,4 | D,4 G,,4 | F,,4 F,4 | %21
 G,4 ^F,4 | G,4 D,4 | G,,4 F,,4 | B,,4 B,4 | B,,2 A,,2 G,,2 C,2 | A,,2 F,,2 B,,2 E,2 | F,4 F,,4 | %28
 B,,4 z4 |] %29

